img/svg/Despetcher.svg

<svg width="54" height="54" viewBox="0 0 54 54" fill="none" xmlns="http://www.w3.org/2000/svg">
<path fill-rule="evenodd" clip-rule="evenodd" d="M0.428793 48.0461V48.0466V49.3033C0.478456 50.3493 0.824782 50.8526 2.79627 51.4136C4.45181 51.8848 9.50979 52.5078 11.3576 52.7385C13.5625 53.0138 19.2066 53.6312 21.2622 53.6269C21.6388 53.6262 21.7334 53.6842 22.111 53.6847L24.7932 53.7371C24.8046 53.7371 24.8169 53.7371 24.8289 53.7371H29.7139C30.2377 53.7283 30.6618 53.7139 30.8931 53.6908C31.1569 53.6645 31.5248 53.6831 31.7993 53.6841C32.1893 53.6855 32.2971 53.6297 32.6482 53.6266C36.2002 53.5949 45.9365 52.3657 48.8881 51.8715C50.3739 51.6226 53.543 51.2317 53.543 49.5095V49.5061V48.6358C53.5381 47.2236 53.4804 46.4845 52.9472 44.7824C52.4365 43.1521 51.1856 41.0915 49.9844 39.7225C47.4184 36.7979 43.011 35.4964 39.081 34.032C38.5153 33.8212 36.4428 32.9335 36.0007 32.9248C34.6822 37.9607 34.3134 40.379 31.5747 45.3003C31.3716 45.6653 31.1524 45.9902 30.9193 46.3431L29.5076 48.3388C28.8076 49.273 28.6506 49.417 27.9606 50.2142C27.7677 50.4369 27.2597 50.9728 26.9249 50.9728C26.603 50.9728 25.4189 49.5601 25.1842 49.2697L22.0721 44.7221C20.2197 41.4255 19.1913 37.8455 18.3108 34.2483C18.2194 33.8752 17.9796 33.2675 17.971 32.9247C17.5951 32.9247 17.42 33.0424 17.1704 33.1337L14.9272 34.0101C12.3272 35.0262 7.52122 36.6032 5.6209 38.195L5.04194 38.6554C4.22279 39.3877 3.77139 39.9547 3.13324 40.8052L1.95184 42.6265C1.83602 42.8603 1.72331 43.0599 1.61126 43.299C0.96195 44.6854 0.428711 46.4205 0.428711 48.0461L0.428793 48.0461Z" fill="white"/>
<path fill-rule="evenodd" clip-rule="evenodd" d="M14.6818 19.1041C14.6818 20.8079 14.5395 21.5633 15.3077 23.154C15.6598 23.8831 15.9966 24.4336 16.4603 25.0552C16.6901 25.3633 16.8981 25.6104 17.1602 25.8958C17.8466 26.6432 17.9033 26.9978 18.2754 27.8302C18.7451 28.8808 19.602 30.2236 20.4823 31.0153C20.6372 31.1546 20.7534 31.2543 20.9099 31.3937C21.2053 31.6567 21.4828 31.8835 21.8166 32.1045C22.4478 32.5223 23.1247 32.9124 23.8871 33.1889C26.7793 34.2382 29.7195 33.7802 32.1642 32.1128C32.6386 31.7892 33.0061 31.4396 33.4276 31.0689L34.5199 29.8188C34.7541 29.4727 34.9444 29.224 35.1478 28.8599C35.5288 28.1782 35.8538 27.5906 36.1206 26.7988C36.2211 26.5004 36.5726 26.1622 36.7844 25.926C37.9875 24.5841 39.2897 22.5882 39.2897 20.7843C39.2897 19.6202 39.5666 17.8373 38.376 17.7492C38.2461 17.253 38.2573 16.9485 38.2563 16.3382C38.2558 16.0126 38.1951 15.9452 38.1909 15.6376L38.0383 11.8711C37.7743 10.2988 37.0864 8.67739 35.982 7.52224C35.5432 7.06332 35.2195 6.75158 34.7074 6.38002C33.8762 5.77684 32.9843 5.29104 31.9266 4.95206C31.0177 4.66077 30.2736 4.48372 29.1446 4.33822C26.0358 3.93759 21.9158 4.42054 19.4186 6.24664C17.4975 7.65145 16.3753 9.4552 15.9513 11.6705C15.9139 11.8657 15.9031 12.1178 15.8645 12.3522C15.8253 12.5907 15.838 12.8391 15.8398 13.0889C15.8422 13.4374 15.7858 13.5568 15.7761 13.8452C15.7595 14.3387 15.7762 14.8677 15.7783 15.3648C15.7792 15.5833 15.7239 17.354 15.6414 17.5735C15.556 17.8005 15.3455 17.7648 15.1228 17.925C14.7886 18.1655 14.6818 18.5861 14.6818 19.1043V19.1041Z" fill="white"/>
<path fill-rule="evenodd" clip-rule="evenodd" d="M10.7836 23.8736C11.7972 23.8736 11.7435 23.9502 12.3236 23.4553C12.6529 23.1744 12.5502 23.1535 12.55 22.4644V15.1477C12.55 13.5116 12.5967 11.9403 13.0293 10.6963C13.6455 8.9241 14.6903 7.41696 16.0981 6.1643C16.2186 6.05701 16.3084 5.96476 16.4335 5.86659L17.1652 5.32528C18.0424 4.6877 19.1029 4.09599 20.123 3.67542C21.532 3.09452 22.7413 2.76927 24.2888 2.50442C25.5692 2.2853 26.8459 2.34059 28.1456 2.35476C28.5228 2.35885 28.995 2.42992 29.3617 2.46498C29.7436 2.5015 30.1763 2.57688 30.5434 2.66015C32.7639 3.16369 34.3343 3.72385 36.1836 4.90405C37.5993 5.80742 39.3006 7.45735 40.0413 8.78831C41.2948 11.0411 41.3548 11.8113 41.3587 14.2825C41.3592 14.5803 41.4071 14.6311 41.422 14.8765V16.6657C41.4071 16.911 41.3592 16.9619 41.3587 17.2597C41.3562 18.8835 41.3857 20.5196 41.3632 22.1416C41.3586 22.4749 41.2997 22.6278 41.2999 23.2776C41.3001 24.1818 41.2976 25.9 41.0471 26.7382C40.8735 27.3191 40.5187 27.1119 39.8983 27.5046C39.7888 27.5739 39.5816 27.7008 39.4897 27.7913L38.9431 28.4974C38.044 30.2081 39.5171 32.1662 41.239 32.1662C42.145 32.1662 42.6934 32.1248 43.4467 31.5291C44.5101 30.6881 44.614 29.2898 44.0614 28.4082C43.7157 27.8567 43.2545 27.6461 42.9445 27.2341C42.9326 27.1933 43.3708 24.5071 43.3708 23.928C43.8201 23.8349 44.1372 23.8124 44.5282 23.657C44.9532 23.4882 45.1109 23.3829 45.4273 23.1021C46.1259 22.4819 46.1235 21.9271 46.173 21.11C46.2214 20.3124 46.0745 19.2142 46.1894 18.4688C46.3069 17.7062 46.1875 17.762 46.1708 17.2634C46.1378 16.2805 46.3504 14.3297 45.8701 13.5202C45.4273 12.774 44.5512 12.382 43.6165 12.2194C43.3673 12.176 43.2664 12.1771 43.2083 11.9322C43.1105 11.5203 43.1661 11.489 42.9696 10.7897C42.3045 8.42333 41.0739 6.57538 39.1833 4.8909C38.5637 4.33893 37.8737 3.83545 37.1585 3.38654C34.7639 1.88357 31.3487 0.622803 27.4732 0.622803C24.3777 0.622803 23.6736 0.691681 20.8264 1.53743C20.106 1.75136 19.4388 2.03148 18.7831 2.32087C15.6853 3.68813 12.9356 6.19936 11.6269 9.0693C11.3301 9.72032 10.9333 10.8145 10.8097 11.5941C10.674 12.4507 10.5702 12.0344 9.54675 12.4214C7.00508 13.3823 8.03175 15.501 7.79008 17.4164C7.67097 18.3598 7.78031 18.001 7.801 18.6149C7.82751 19.4031 7.71037 21.7087 7.98799 22.4049C8.09011 22.6608 8.35148 23.015 8.58034 23.1786C9.12925 23.5712 9.81099 23.8739 10.7836 23.8739V23.8736Z" fill="white"/>
</svg>

<svg width="54" height="54" fill="none" xmlns="http://www.w3.org/2000/svg"><path fill-rule="evenodd" clip-rule="evenodd" d="M.429 48.046v1.257c.05 1.046.396 1.55 2.367 2.11 1.656.472 6.714 1.095 8.562 1.326 2.204.275 7.849.892 9.904.888.377 0 .471.057.849.058l2.682.052h4.921c.524-.009.948-.023 1.18-.046.263-.027.63-.008.905-.007.39.002.498-.054.85-.057 3.551-.032 13.288-1.261 16.24-1.756 1.485-.248 4.654-.64 4.654-2.361v-.874c-.005-1.412-.063-2.152-.596-3.854-.51-1.63-1.761-3.69-2.963-5.06-2.566-2.924-6.973-4.226-10.903-5.69-.566-.21-2.638-1.098-3.08-1.107-1.319 5.036-1.688 7.454-4.426 12.375-.203.365-.423.69-.656 1.043l-1.411 1.996c-.7.934-.857 1.078-1.547 1.875-.193.223-.701.759-1.036.759-.322 0-1.506-1.413-1.74-1.703l-3.113-4.548c-1.852-3.297-2.88-6.877-3.761-10.474-.092-.373-.331-.98-.34-1.323-.376 0-.551.117-.8.209l-2.244.876c-2.6 1.016-7.406 2.593-9.306 4.185l-.58.46c-.818.733-1.27 1.3-1.908 2.15l-1.181 1.822c-.116.233-.229.433-.34.672C.961 44.685.428 46.42.428 48.046z" fill="#fff"/><path fill-rule="evenodd" clip-rule="evenodd" d="M14.682 19.104c0 1.704-.143 2.46.626 4.05.352.73.689 1.28 1.152 1.901.23.308.438.555.7.84.687.748.743 1.103 1.115 1.935.47 1.05 1.327 2.394 2.207 3.185.155.14.271.24.428.379.295.263.573.49.907.71.63.418 1.308.808 2.07 1.085 2.892 1.05 5.832.591 8.277-1.076.475-.324.842-.673 1.264-1.044l1.092-1.25c.234-.346.424-.595.628-.96.38-.68.706-1.268.973-2.06.1-.299.452-.637.663-.873 1.203-1.342 2.506-3.338 2.506-5.142 0-1.164.277-2.947-.914-3.035-.13-.496-.119-.8-.12-1.41 0-.326-.06-.394-.065-.701l-.153-3.767c-.264-1.572-.952-3.194-2.056-4.349-.439-.459-.763-.77-1.275-1.142a9.683 9.683 0 00-2.78-1.428 14.257 14.257 0 00-2.782-.614c-3.11-.4-7.23.083-9.726 1.909-1.922 1.404-3.044 3.208-3.468 5.424-.037.195-.048.447-.087.681-.039.239-.026.487-.024.737.002.348-.054.468-.064.756-.017.494 0 1.023.002 1.52.001.218-.054 1.989-.137 2.208-.085.227-.296.192-.518.352-.334.24-.441.661-.441 1.18z" fill="#fff"/><path fill-rule="evenodd" clip-rule="evenodd" d="M10.784 23.874c1.013 0 .96.076 1.54-.419.329-.28.226-.301.226-.99v-7.317c0-1.636.047-3.208.48-4.452.616-1.772 1.66-3.279 3.068-4.532.12-.107.21-.2.335-.297l.732-.542a14.803 14.803 0 012.958-1.65c1.409-.58 2.618-.906 4.166-1.17 1.28-.22 2.557-.164 3.857-.15.377.004.849.075 1.216.11a9.86 9.86 0 011.181.195c2.22.504 3.791 1.064 5.64 2.244 1.416.903 3.118 2.553 3.858 3.884 1.254 2.253 1.314 3.023 1.318 5.495 0 .297.048.348.063.594v1.789c-.015.245-.063.296-.063.594-.003 1.623.027 3.26.004 4.882-.004.333-.063.486-.063 1.136 0 .904-.002 2.622-.253 3.46-.173.581-.528.374-1.149.767-.11.069-.316.196-.408.286l-.547.706c-.899 1.711.574 3.67 2.296 3.67.906 0 1.454-.042 2.208-.638 1.063-.84 1.167-2.24.614-3.12-.345-.552-.806-.763-1.117-1.175-.011-.04.427-2.727.427-3.306.45-.093.766-.116 1.157-.271a2.47 2.47 0 00.9-.555c.698-.62.696-1.175.745-1.992.048-.798-.099-1.896.016-2.641.118-.763-.002-.707-.018-1.206-.033-.983.18-2.933-.3-3.743-.444-.746-1.32-1.138-2.255-1.3-.249-.044-.35-.043-.408-.288-.097-.412-.042-.443-.238-1.142-.666-2.367-1.896-4.215-3.787-5.9a15.204 15.204 0 00-2.025-1.503C34.764 1.884 31.348.623 27.473.623c-3.095 0-3.8.069-6.647.914-.72.214-1.387.494-2.043.784-3.098 1.367-5.847 3.878-7.156 6.748-.297.651-.694 1.745-.817 2.525-.136.857-.24.44-1.263.827-2.542.961-1.515 3.08-1.757 4.995-.119.944-.01.585.011 1.199.027.788-.09 3.094.187 3.79.102.256.363.61.592.774.55.392 1.231.695 2.204.695z" fill="#fff"/></svg>
